src/actions/22/object-flip-vertical.svg

<svg xmlns="http://www.w3.org/2000/svg" viewBox="0 0 22 22">
    <path d="M6 3v3H5v1h1v3h3v2H6v3H5v1h1v3h10v-3h1v-1h-1v-3h-3v-2h3V7h1V6h-1V3H6zm1 1h8v5H7V4zM3 6v1h1V6H3zm15 0v1h1V6h-1zm-8 4h2v2h-2v-2zm-3 3h8v5H7v-5zm1 1v3h6v-3H8zm-5 1v1h1v-1H3zm15 0v1h1v-1h-1z" style="fill:currentColor;fill-opacity:1;stroke:none;color:#050505;opacity:.7"/>
</svg>

<svg xmlns="http://www.w3.org/2000/svg" viewBox="0 0 22 22">
  <defs id="defs3051">
    <style type="text/css" id="current-color-scheme">
      .ColorScheme-Text {
        color:#363636;
      }
      </style>
  </defs>
 <path 
     style="fill:currentColor;fill-opacity:1;stroke:none" 
     d="M 6 3 L 6 6 L 5 6 L 5 7 L 6 7 L 6 10 L 9 10 L 9 12 L 6 12 L 6 15 L 5 15 L 5 16 L 6 16 L 6 19 L 16 19 L 16 16 L 17 16 L 17 15 L 16 15 L 16 12 L 13 12 L 13 10 L 16 10 L 16 7 L 17 7 L 17 6 L 16 6 L 16 3 L 6 3 z M 7 4 L 15 4 L 15 9 L 7 9 L 7 4 z M 3 6 L 3 7 L 4 7 L 4 6 L 3 6 z M 18 6 L 18 7 L 19 7 L 19 6 L 18 6 z M 10 10 L 12 10 L 12 12 L 10 12 L 10 10 z M 7 13 L 15 13 L 15 18 L 7 18 L 7 13 z M 8 14 L 8 17 L 14 17 L 14 14 L 8 14 z M 3 15 L 3 16 L 4 16 L 4 15 L 3 15 z M 18 15 L 18 16 L 19 16 L 19 15 L 18 15 z "
	 class="ColorScheme-Text"
     />
</svg>
